X:2077
T:Skålhallingen
Z:[[http://www.bluerose.karenlmyers.org/IncipitsHalling1.html|Karen Myers (#2077)]]
Z:Upptecknad 6/2005
M:2/4
L:1/16
R:Halling
K:Dm
D2(DE F2)(FG | A2)(AG) (FE)D2 | (agfe) (fde^c) | d4 A4 | D2(DE F2)(FG | A2)(AG) (FE)D2 |
(agfe) (fde^c) | d4 A4 :: a4 (a^gab) | a4 (a^gab) |
(a^gab) (agab) | a2g2 f2e2 | (agfe) (fde^c) |1 d4 A4 :|2 d4 d4 |]
